X:22
T:En Dro
C:Traditional
R:Dance
M:4/4
L:1/8
K:G
|:"E"B2BcB3A|G2F2E4|"D"A2AGF3A|1"E"B2A2G2F2:|2"E"G2F2E4||
"E"B2BcB2G2|"D"A2ABA2F2|1"E"G2GFE3F|G2A2"D"F4:|2"E"G2GFE3G|"D"F2G2"E"E4|]
